X:1
T:The Harvest Is White
T:The Harvest Is White
T:Alonzo Judson Abbey
T:Horatio Gates Abbey, 1874
T:Public Domain Courtesy of the Cyber Hymnal™
T:Public Domain Courtesy of the Cyber Hymnal™
C:Alonzo Judson Abbey
Z:Public Domain
Z:Courtesy of the Cyber Hymnal™
%%score ( 1 2 ) ( 3 4 )
L:1/8
Q:1/4=95
M:9/8
K:A
V:1 treble 
V:2 treble 
V:3 bass 
V:4 bass 
V:1
 [CE][CE][CA] [DB] | [Ec]4 z [Ac] [Ac][GB][Ac] | [ce]3- [ce]2 [ce] [df][df][df] | %3
w: 1.~The har- vest is|white! The la- borers are|few, * And work is a-|
w: 2.~The har- vest is|white! From far dis- tant|lands, * The hea- then are|
w: 3.~The har- vest is|white! On all sides a-|round, * The woe strick- en|
w: 4.~The har- vest is|white! Go forth to the|field, * If young or too|
 [ce]3 [Ac]2 [Ac] [Ac][GB][FA] | [GB]3- [GB]2 [^Ec] [Ec][Ec][EB] | [FA]3 F2 F [FA][FA][FB] | %6
w: bun- dant for Chris- tians to|do. * The poor and the|fam- ished are cry- ing for|
w: cry- ing with up- lift- ed|hands. * While rings loud and|clear the com- mand of the|
w: fol- lowers of Sa- tan a-|bound; * De- grad- ed, de-|based and cor- rup- ted with|
w: fee- ble the sick- le to|wield, * The sheaves must be|ga- thered, and some one must|
 [^Ec]3- [Ec]2 [Ec] [Fc][Fc][A^d] | [Ge]3 [GB]2 [Ac] [Bd][Ac][GB] | A3- A2 || %9
w: bread, * The sick must be|cared for, the hun- gry be|fed. *|
w: Lord, * “Go ye to all|na- tions, and pub- lish My|Word.” *|
w: sin, * From street and from|al- ley, go ga- ther them|in. *|
w: wait, * While o- thers are|toil- ing, to watch at the|gate. *|
"^Refrain" [CA][CA][CA] [CA] | [CA]3 [CE]2 [CA] [Ec][Ec][Ec] | [Ec]3- [Ec]2 [ce] [df][df][df] | %12
w: Go forth to the|har- vest, go work for the|Lord, * The least act of|
w: Go forth to the|har- vest, go, la- bor with|might, * The day is fast|
w: Go forth to the|har- vest, there’s no time to|lose, * The Sav- ior com-|
w: Go forth to the|har- vest, the great and the|small, * Go work with a|
 [ce]3 [Ac]2 [Ac] [Ac][GB][FA] [GB]3- [GB]2 [CA][CA][CA][CA] | [CA]3 [CE]2 [CA] [Ec][Ec][Ec] | %14
w: kind- ness shall have its re- ward. * Go forth to the|har- vest, go work for the|
w: pass- ing, soon com- eth the night. * Go forth to the|har- vest, go, la- bor with|
w: mands it! Let no one re- fuse. * Go forth to the|har- vest, there’s no time to|
w: will, for there’s work for us all. * Go forth to the|har- vest, the great and the|
 [Ac]3- [Ac]2 [Ae] [Af][Af][Af] | [Ae]3 [Ac]2 A [GB][Gc][GB] | A3- A4 |] %17
w: Lord, * The least act of|kind- ness shall have its re-|ward. *|
w: might, * The day is fast|pass- ing, soon com- eth the|night. *|
w: lose, * The Sav- ior com-|mands it! Let no one re-|fuse. *|
w: small, * Go work with a|will, for there’s work for us|all. *|
V:2
 x4 | x9 | x9 | x9 | x9 | x3 F2 F x3 | x9 | x9 | A3- A2 || x4 | x9 | x9 | x18 | x9 | x9 | x5 A x3 | %16
 A3- A4 |] %17
V:3
 A,A,A, A, | A,4 z A, A,A,A, | A,3- A,2 A, D,D,F, | A,3 A,2 A,, A,,B,,C, | E,3- E,2 C, C,C,C, | %5
 F,3 F,2 F, F,F,D, | C,3- C,2 C, F,F,F, | E,3 E,2 E, E,E,E, | A,,3- A,,2 || A,A,A, A, | %10
 A,3 A,,2 A,, A,A,A, | A,3- A,2 A, D,D,F, | A,3 A,2 A,, A,,B,,C, E,3- E,2 A,A,A,A, | %13
 A,3 [A,,A,]2 [A,,A,] A,A,[A,C] | [A,E]3- [A,E]2 [A,C] [D,D][D,D][F,D] | %15
 [A,C]3 [A,C]2 [A,C] [E,D][E,E][E,D] | [A,,C]3- [A,,C]4 |] %17
V:4
 x4 | x9 | x9 | x9 | x9 | x9 | x9 | x9 | x5 || x4 | x9 | x9 | x14 A,A,A,A, | A,3 A,A, x4 | x9 | %15
 x9 | x7 |] %17

